ocio_configuration/LUTs/sRGB_Linear_to_CCTF_variant.spi1d
Version 1
From -0.1250000000 3.0000000000
Length 8192
Components 1
{
 -1.6150000000
 -1.6100708094
 -1.6051416188
 -1.6002124283
 -1.5952832377
 -1.5903540471
 -1.5854248565
 -1.5804956660
 -1.5755664754
 -1.5706372848
 -1.5657080942
 -1.5607789037
 -1.5558497131
 -1.5509205225
 -1.5459913319
 -1.5410621414
 -1.5361329508
 -1.5312037602
 -1.5262745696
 -1.5213453791
 -1.5164161885
 -1.5114869979
 -1.5065578073
 -1.5016286168
 -1.4966994262
 -1.4917702356
 -1.4868410450
 -1.4819118545
 -1.4769826639
 -1.4720534733
 -1.4671242827
 -1.4621950922
 -1.4572659016
 -1.4523367110
 -1.4474075204
 -1.4424783299
 -1.4375491393
 -1.4326199487
 -1.4276907581
 -1.4227615676
 -1.4178323770
 -1.4129031864
 -1.4079739958
 -1.4030448053
 -1.3981156147
 -1.3931864241
 -1.3882572335
 -1.3833280430
 -1.3783988524
 -1.3734696618
 -1.3685404712
 -1.3636112807
 -1.3586820901
 -1.3537528995
 -1.3488237089
 -1.3438945184
 -1.3389653278
 -1.3340361372
 -1.3291069466
 -1.3241777561
 -1.3192485655
 -1.3143193749
 -1.3093901843
 -1.3044609938
 -1.2995318032
 -1.2946026126
 -1.2896734220
 -1.2847442315
 -1.2798150409
 -1.2748858503
 -1.2699566597
 -1.2650274692
 -1.2600982786
 -1.2551690880
 -1.2502398974
 -1.2453107069
 -1.2403815163
 -1.2354523257
 -1.2305231351
 -1.2255939446
 -1.2206647540
 -1.2157355634
 -1.2108063728
 -1.2058771823
 -1.2009479917
 -1.1960188011
 -1.1910896105
 -1.1861604200
 -1.1812312294
 -1.1763020388
 -1.1713728482
 -1.1664436577
 -1.1615144671
 -1.1565852765
 -1.1516560859
 -1.1467268954
 -1.1417977048
 -1.1368685142
 -1.1319393236
 -1.1270101331
 -1.1220809425
 -1.1171517519
 -1.1122225613
 -1.1072933708
 -1.1023641802
 -1.0974349896
 -1.0925057990
 -1.0875766085
 -1.0826474179
 -1.0777182273
 -1.0727890367
 -1.0678598462
 -1.0629306556
 -1.0580014650
 -1.0530722744
 -1.0481430839
 -1.0432138933
 -1.0382847027
 -1.0333555121
 -1.0284263216
 -1.0234971310
 -1.0185679404
 -1.0136387498
 -1.0087095593
 -1.0037803687
 -0.9988511781
 -0.9939219875
 -0.9889927970
 -0.9840636064
 -0.9791344158
 -0.9742052252
 -0.9692760347
 -0.9643468441
 -0.9594176535
 -0.9544884629
 -0.9495592724
 -0.9446300818
 -0.9397008912
 -0.9347717006
 -0.9298425101
 -0.9249133195
 -0.9199841289
 -0.9150549383
 -0.9101257478
 -0.9051965572
 -0.9002673666
 -0.8953381760
 -0.8904089855
 -0.8854797949
 -0.8805506043
 -0.8756214137
 -0.8706922232
 -0.8657630326
 -0.8608338420
 -0.8559046514
 -0.8509754609
 -0.8460462703
 -0.8411170797
 -0.8361878891
 -0.8312586986
 -0.8263295080
 -0.8214003174
 -0.8164711268
 -0.8115419363
 -0.8066127457
 -0.8016835551
 -0.7967543645
 -0.7918251740
 -0.7868959834
 -0.7819667928
 -0.7770376022
 -0.7721084117
 -0.7671792211
 -0.7622500305
 -0.7573208399
 -0.7523916494
 -0.7474624588
 -0.7425332682
 -0.7376040776
 -0.7326748871
 -0.7277456965
 -0.7228165059
 -0.7178873153
 -0.7129581248
 -0.7080289342
 -0.7030997436
 -0.6981705530
 -0.6932413625
 -0.6883121719
 -0.6833829813
 -0.6784537907
 -0.6735246002
 -0.6685954096
 -0.6636662190
 -0.6587370284
 -0.6538078379
 -0.6488786473
 -0.6439494567
 -0.6390202661
 -0.6340910756
 -0.6291618850
 -0.6242326944
 -0.6193035038
 -0.6143743133
 -0.6094451227
 -0.6045159321
 -0.5995867415
 -0.5946575510
 -0.5897283604
 -0.5847991698
 -0.5798699792
 -0.5749407887
 -0.5700115981
 -0.5650824075
 -0.5601532169
 -0.5552240264
 -0.5502948358
 -0.5453656452
 -0.5404364546
 -0.5355072641
 -0.5305780735
 -0.5256488829
 -0.5207196923
 -0.5157905018
 -0.5108613112
 -0.5059321206
 -0.5010029300
 -0.4960737395
 -0.4911445489
 -0.4862153583
 -0.4812861677
 -0.4763569772
 -0.4714277866
 -0.4664985960
 -0.4615694054
 -0.4566402149
 -0.4517110243
 -0.4467818337
 -0.4418526431
 -0.4369234526
 -0.4319942620
 -0.4270650714
 -0.4221358808
 -0.4172066903
 -0.4122774997
 -0.4073483091
 -0.4024191185
 -0.3974899280
 -0.3925607374
 -0.3876315468
 -0.3827023562
 -0.3777731657
 -0.3728439751
 -0.3679147845
 -0.3629855939
 -0.3580564034
 -0.3531272128
 -0.3481980222
 -0.3432688316
 -0.3383396411
 -0.3334104505
 -0.3284812599
 -0.3235520693
 -0.3186228788
 -0.3136936882
 -0.3087644976
 -0.3038353070
 -0.2989061165
 -0.2939769259
 -0.2890477353
 -0.2841185447
 -0.2791893542
 -0.2742601636
 -0.2693309730
 -0.2644017824
 -0.2594725919
 -0.2545434013
 -0.2496142107
 -0.2446850201
 -0.2397558296
 -0.2348266390
 -0.2298974484
 -0.2249682578
 -0.2200390673
 -0.2151098767
 -0.2101806861
 -0.2052514955
 -0.2003223050
 -0.1953931144
 -0.1904639238
 -0.1855347332
 -0.1806055427
 -0.1756763521
 -0.1707471615
 -0.1658179709
 -0.1608887804
 -0.1559595898
 -0.1510303992
 -0.1461012086
 -0.1411720181
 -0.1362428275
 -0.1313136369
 -0.1263844463
 -0.1214552558
 -0.1165260652
 -0.1115968746
 -0.1066676840
 -0.1017384935
 -0.0968093029
 -0.0918801123
 -0.0869509217
 -0.0820217312
 -0.0770925406
 -0.0721633500
 -0.0672341594
 -0.0623049689
 -0.0573757783
 -0.0524465877
 -0.0475173971
 -0.0425882066
 -0.0376590160
 -0.0327298254
 -0.0278006348
 -0.0228714443
 -0.0179422537
 -0.0130130631
 -0.0080838725
 -0.0031546820
 0.0017745086
 0.0067036992
 0.0116328898
 0.0165620803
 0.0214912709
 0.0264204615
 0.0313496521
 0.0362788426
 0.0411912419
 0.0458280078
 0.0501839512
 0.0543009376
 0.0582115177
 0.0619415755
 0.0655120848
 0.0689403132
 0.0722406730
 0.0754253367
 0.0785046927
 0.0814876889
 0.0843820952
 0.0871947089
 0.0899315152
 0.0925978163
 0.0951983348
 0.0977372980
 0.1002185071
 0.1026453947
 0.1050210727
 0.1073483718
 0.1096298766
 0.1118679531
 0.1140647746
 0.1162223422
 0.1183425033
 0.1204269676
 0.1224773208
 0.1244950368
 0.1264814883
 0.1284379565
 0.1303656387
 0.1322656563
 0.1341390613
 0.1359868416
 0.1378099270
 0.1396091931
 0.1413854663
 0.1431395270
 0.1448721134
 0.1465839244
 0.1482756227
 0.1499478370
 0.1516011646
 0.1532361736
 0.1548534046
 0.1564533728
 0.1580365693
 0.1596034629
 0.1611545014
 0.1626901129
 0.1642107069
 0.1657166754
 0.1672083940
 0.1686862230
 0.1701505079
 0.1716015803
 0.1730397590
 0.1744653503
 0.1758786488
 0.1772799380
 0.1786694909
 0.1800475706
 0.1814144306
 0.1827703155
 0.1841154611
 0.1854500953
 0.1867744382
 0.1880887022
 0.1893930929
 0.1906878091
 0.1919730431
 0.1932489810
 0.1945158032
 0.1957736842
 0.1970227933
 0.1982632946
 0.1994953473
 0.2007191056
 0.2019347194
 0.2031423343
 0.2043420914
 0.2055341281
 0.2067185776
 0.2078955697
 0.2090652305
 0.2102276825
 0.2113830452
 0.2125314346
 0.2136729638
 0.2148077430
 0.2159358794
 0.2170574775
 0.2181726391
 0.2192814635
 0.2203840476
 0.2214804857
 0.2225708699
 0.2236552902
 0.2247338342
 0.2258065875
 0.2268736339
 0.2279350550
 0.2289909304
 0.2300413383
 0.2310863547
 0.2321260541
 0.2331605093
 0.2341897915
 0.2352139704
 0.2362331139
 0.2372472888
 0.2382565602
 0.2392609920
 0.2402606466
 0.2412555853
 0.2422458678
 0.2432315530
 0.2442126982
 0.2451893599
 0.2461615930
 0.2471294519
 0.2480929894
 0.2490522575
 0.2500073072
 0.2509581885
 0.2519049503
 0.2528476408
 0.2537863072
 0.2547209957
 0.2556517517
 0.2565786199
 0.2575016440
 0.2584208670
 0.2593363310
 0.2602480775
 0.2611561472
 0.2620605801
 0.2629614154
 0.2638586917
 0.2647524469
 0.2656427183
 0.2665295424
 0.2674129554
 0.2682929924
 0.2691696885
 0.2700430777
 0.2709131936
 0.2717800695
 0.2726437377
 0.2735042304
 0.2743615790
 0.2752158145
 0.2760669674
 0.2769150677
 0.2777601449
 0.2786022282
 0.2794413461
 0.2802775268
 0.2811107980
 0.2819411871
 0.2827687209
 0.2835934260
 0.2844153285
 0.2852344540
 0.2860508278
 0.2868644750
 0.2876754200
 0.2884836872
 0.2892893003
 0.2900922829
 0.2908926582
 0.2916904491
 0.2924856780
 0.2932783671
 0.2940685385
 0.2948562136
 0.2956414137
 0.2964241599
 0.2972044728
 0.2979823729
 0.2987578803
 0.2995310148
 0.3003017962
 0.3010702437
 0.3018363764
 0.3026002131
 0.3033617725
 0.3041210728
 0.3048781321
 0.3056329684
 0.3063855992
 0.3071360420
 0.3078843139
 0.3086304318
 0.3093744126
 0.3101162728
 0.3108560287
 0.3115936964
 0.3123292918
 0.3130628307
 0.3137943286
 0.3145238008
 0.3152512626
 0.3159767287
 0.3167002142
 0.3174217335
 0.3181413011
 0.3188589312
 0.3195746381
 0.3202884355
 0.3210003372
 0.3217103569
 0.3224185080
 0.3231248037
 0.3238292573
 0.3245318817
 0.3252326897
 0.3259316941
 0.3266289073
 0.3273243418
 0.3280180098
 0.3287099235
 0.3294000948
 0.3300885357
 0.3307752577
 0.3314602727
 0.3321435919
 0.3328252267
 0.3335051885
 0.3341834882
 0.3348601369
 0.3355351454
 0.3362085244
 0.3368802846
 0.3375504366
 0.3382189907
 0.3388859572
 0.3395513463
 0.3402151681
 0.3408774326
 0.3415381497
 0.3421973290
 0.3428549804
 0.3435111134
 0.3441657374
 0.3448188619
 0.3454704961
 0.3461206492
 0.3467693303
 0.3474165485
 0.3480623126
 0.3487066315
 0.3493495140
 0.3499909686
 0.3506310041
 0.3512696287
 0.3519068511
 0.3525426794
 0.3531771220
 0.3538101870
 0.3544418825
 0.3550722164
 0.3557011969
 0.3563288316
 0.3569551284
 0.3575800951
 0.3582037391
 0.3588260682
 0.3594470898
 0.3600668114
 0.3606852402
 0.3613023837
 0.3619182489
 0.3625328432
 0.3631461735
 0.3637582469
 0.3643690704
 0.3649786509
 0.3655869952
 0.3661941101
 0.3668000023
 0.3674046785
 0.3680081453
 0.3686104092
 0.3692114767
 0.3698113542
 0.3704100482
 0.3710075649
 0.3716039106
 0.3721990915
 0.3727931137
 0.3733859835
 0.3739777067
 0.3745682894
 0.3751577376
 0.3757460571
 0.3763332538
 0.3769193335
 0.3775043020
 0.3780881649
 0.3786709279
 0.3792525966
 0.3798331765
 0.3804126732
 0.3809910922
 0.3815684389
 0.3821447185
 0.3827199366
 0.3832940983
 0.3838672090
 0.3844392738
 0.3850102978
 0.3855802863
 0.3861492443
 0.3867171768
 0.3872840889
 0.3878499854
 0.3884148714
 0.3889787517
 0.3895416311
 0.3901035145
 0.3906644066
 0.3912243122
 0.3917832360
 0.3923411825
 0.3928981565
 0.3934541625
 0.3940092051
 0.3945632888
 0.3951164181
 0.3956685974
 0.3962198311
 0.3967701237
 0.3973194794
 0.3978679027
 0.3984153977
 0.3989619687
 0.3995076200
 0.4000523557
 0.4005961800
 0.4011390971
 0.4016811110
 0.4022222257
 0.4027624454
 0.4033017740
 0.4038402155
 0.4043777738
 0.4049144530
 0.4054502568
 0.4059851891
 0.4065192538
 0.4070524547
 0.4075847956
 0.4081162802
 0.4086469122
 0.4091766953
 0.4097056333
 0.4102337298
 0.4107609883
 0.4112874126
 0.4118130061
 0.4123377724
 0.4128617151
 0.4133848376
 0.4139071435
 0.4144286361
 0.4149493189
 0.4154691953
 0.4159882686
 0.4165065423
 0.4170240197
 0.4175407041
 0.4180565988
 0.4185717070
 0.4190860319
 0.4195995769
 0.4201123451
 0.4206243397
 0.4211355639
 0.4216460208
 0.4221557134
 0.4226646450
 0.4231728186
 0.4236802372
 0.4241869039
 0.4246928217
 0.4251979936
 0.4257024225
 0.4262061115
 0.4267090634
 0.4272112813
 0.4277127679
 0.4282135262
 0.4287135590
 0.4292128693
 0.4297114597
 0.4302093331
 0.4307064924
 0.4312029402
 0.4316986794
 0.4321937127
 0.4326880427
 0.4331816723
 0.4336746041
 0.4341668407
 0.4346583848
 0.4351492391
 0.4356394062
 0.4361288887
 0.4366176891
 0.4371058101
 0.4375932542
 0.4380800239
 0.4385661218
 0.4390515504
 0.4395363122
 0.4400204096
 0.4405038451
 0.4409866213
 0.4414687404
 0.4419502049
 0.4424310174
 0.4429111800
 0.4433906952
 0.4438695654
 0.4443477930
 0.4448253802
 0.4453023293
 0.4457786428
 0.4462543228
 0.4467293717
 0.4472037918
 0.4476775852
 0.4481507542
 0.4486233011
 0.4490952281
 0.4495665374
 0.4500372311
 0.4505073114
 0.4509767806
 0.4514456407
 0.4519138939
 0.4523815423
 0.4528485881
 0.4533150333
 0.4537808801
 0.4542461304
 0.4547107865
 0.4551748503
 0.4556383238
 0.4561012092
 0.4565635084
 0.4570252235
 0.4574863564
 0.4579469092
 0.4584068837
 0.4588662821
 0.4593251061
 0.4597833579
 0.4602410392
 0.4606981521
 0.4611546985
 0.4616106802
 0.4620660991
 0.4625209572
 0.4629752562
 0.4634289981
 0.4638821847
 0.4643348178
 0.4647868994
 0.4652384311
 0.4656894148
 0.4661398523
 0.4665897455
 0.4670390960
 0.4674879056
 0.4679361762
 0.4683839095
 0.4688311072
 0.4692777710
 0.4697239027
 0.4701695040
 0.4706145766
 0.4710591222
 0.4715031425
 0.4719466392
 0.4723896139
 0.4728320684
 0.4732740042
 0.4737154230
 0.4741563264
 0.4745967162
 0.4750365939
 0.4754759610
 0.4759148193
 0.4763531703
 0.4767910156
 0.4772283568
 0.4776651955
 0.4781015332
 0.4785373715
 0.4789727118
 0.4794075559
 0.4798419052
 0.4802757612
 0.4807091254
 0.4811419994
 0.4815743846
 0.4820062826
 0.4824376949
 0.4828686228
 0.4832990680
 0.4837290318
 0.4841585157
 0.4845875212
 0.4850160497
 0.4854441026
 0.4858716814
 0.4862987876
 0.4867254224
 0.4871515873
 0.4875772838
 0.4880025132
 0.4884272770
 0.4888515764
 0.4892754128
 0.4896987878
 0.4901217025
 0.4905441583
 0.4909661567
 0.4913876989
 0.4918087863
 0.4922294202
 0.4926496019
 0.4930693328
 0.4934886141
 0.4939074472
 0.4943258333
 0.4947437738
 0.4951612700
 0.4955783231
 0.4959949343
 0.4964111050
 0.4968268365
 0.4972421299
 0.4976569866
 0.4980714077
 0.4984853946
 0.4988989484
 0.4993120704
 0.4997247617
 0.5001370237
 0.5005488575
 0.5009602643
 0.5013712454
 0.5017818019
 0.5021919350
 0.5026016459
 0.5030109357
 0.5034198057
 0.5038282570
 0.5042362908
 0.5046439082
 0.5050511104
 0.5054578985
 0.5058642737
 0.5062702371
 0.5066757898
 0.5070809330
 0.5074856677
 0.5078899951
 0.5082939164
 0.5086974326
 0.5091005447
 0.5095032540
 0.5099055615
 0.5103074682
 0.5107089754
 0.5111100839
 0.5115107950
 0.5119111097
 0.5123110290
 0.5127105540
 0.5131096858
 0.5135084254
 0.5139067738
 0.5143047321
 0.5147023014
 0.5150994826
 0.5154962767
 0.5158926849
 0.5162887081
 0.5166843474
 0.5170796036
 0.5174744780
 0.5178689713
 0.5182630848
 0.5186568192
 0.5190501757
 0.5194431552
 0.5198357587
 0.5202279871
 0.5206198414
 0.5210113227
 0.5214024318
 0.5217931697
 0.5221835375
 0.5225735359
 0.5229631660
 0.5233524287
 0.5237413250
 0.5241298557
 0.5245180219
 0.5249058244
 0.5252932642
 0.5256803422
 0.5260670593
 0.5264534164
 0.5268394144
 0.5272250542
 0.5276103368
 0.5279952630
 0.5283798337
 0.5287640499
 0.5291479123
 0.5295314219
 0.5299145795
 0.5302973861
 0.5306798425
 0.5310619496
 0.5314437081
 0.5318251191
 0.5322061834
 0.5325869017
 0.5329672750
 0.5333473042
 0.5337269899
 0.5341063332
 0.5344853348
 0.5348639955
 0.5352423163
 0.5356202979
 0.5359979411
 0.5363752468
 0.5367522157
 0.5371288488
 0.5375051468
 0.5378811104
 0.5382567407
 0.5386320382
 0.5390070039
 0.5393816384
 0.5397559427
 0.5401299175
 0.5405035636
 0.5408768817
 0.5412498727
 0.5416225373
 0.5419948763
 0.5423668905
 0.5427385806
 0.5431099475
 0.5434809917
 0.5438517143
 0.5442221158
 0.5445921970
 0.5449619587
 0.5453314017
 0.5457005266
 0.5460693342
 0.5464378253
 0.5468060006
 0.5471738609
 0.5475414067
 0.5479086390
 0.5482755584
 0.5486421656
 0.5490084614
 0.5493744465
 0.5497401215
 0.5501054872
 0.5504705444
 0.5508352936
 0.5511997357
 0.5515638713
 0.5519277011
 0.5522912258
 0.5526544461
 0.5530173628
 0.5533799764
 0.5537422877
 0.5541042973
 0.5544660060
 0.5548274144
 0.5551885231
 0.5555493330
 0.5559098445
 0.5562700585
 0.5566299755
 0.5569895963
 0.5573489215
 0.5577079517
 0.5580666876
 0.5584251299
 0.5587832792
 0.5591411361
 0.5594987014
 0.5598559756
 0.5602129594
 0.5605696535
 0.5609260584
 0.5612821748
 0.5616380033
 0.5619935447
 0.5623487994
 0.5627037682
 0.5630584516
 0.5634128502
 0.5637669648
 0.5641207959
 0.5644743441
 0.5648276100
 0.5651805943
 0.5655332975
 0.5658857203
 0.5662378633
 0.5665897270
 0.5669413121
 0.5672926192
 0.5676436488
 0.5679944016
 0.5683448782
 0.5686950790
 0.5690450049
 0.5693946562
 0.5697440336
 0.5700931377
 0.5704419690
 0.5707905282
 0.5711388158
 0.5714868324
 0.5718345785
 0.5721820548
 0.5725292617
 0.5728761999
 0.5732228699
 0.5735692723
 0.5739154077
 0.5742612766
 0.5746068795
 0.5749522170
 0.5752972897
 0.5756420981
 0.5759866428
 0.5763309243
 0.5766749431
 0.5770186999
 0.5773621951
 0.5777054292
 0.5780484029
 0.5783911166
 0.5787335710
 0.5790757664
 0.5794177035
 0.5797593828
 0.5801008048
 0.5804419700
 0.5807828789
 0.5811235322
 0.5814639302
 0.5818040736
 0.5821439628
 0.5824835983
 0.5828229807
 0.5831621105
 0.5835009881
 0.5838396141
 0.5841779891
 0.5845161134
 0.5848539876
 0.5851916123
 0.5855289878
 0.5858661148
 0.5862029936
 0.5865396248
 0.5868760090
 0.5872121465
 0.5875480378
 0.5878836836
 0.5882190842
 0.5885542401
 0.5888891518
 0.5892238198
 0.5895582446
 0.5898924267
 0.5902263664
 0.5905600644
 0.5908935211
 0.5912267370
 0.5915597124
 0.5918924480
 0.5922249441
 0.5925572013
 0.5928892200
 0.5932210006
 0.5935525437
 0.5938838496
 0.5942149190
 0.5945457521
 0.5948763494
 0.5952067115
 0.5955368388
 0.5958667317
 0.5961963907
 0.5965258161
 0.5968550086
 0.5971839685
 0.5975126963
 0.5978411923
 0.5981694571
 0.5984974912
 0.5988252948
 0.5991528685
 0.5994802128
 0.5998073280
 0.6001342145
 0.6004608729
 0.6007873035
 0.6011135068
 0.6014394832
 0.6017652332
 0.6020907570
 0.6024160553
 0.6027411284
 0.6030659767
 0.6033906007
 0.6037150008
 0.6040391773
 0.6043631308
 0.6046868615
 0.6050103701
 0.6053336567
 0.6056567220
 0.6059795662
 0.6063021898
 0.6066245932
 0.6069467768
 0.6072687410
 0.6075904863
 0.6079120129
 0.6082333214
 0.6085544121
 0.6088752854
 0.6091959417
 0.6095163815
 0.6098366051
 0.6101566129
 0.6104764053
 0.6107959827
 0.6111153455
 0.6114344940
 0.6117534288
 0.6120721501
 0.6123906583
 0.6127089539
 0.6130270372
 0.6133449086
 0.6136625685
 0.6139800172
 0.6142972552
 0.6146142829
 0.6149311005
 0.6152477085
 0.6155641073
 0.6158802972
 0.6161962786
 0.6165120519
 0.6168276174
 0.6171429756
 0.6174581268
 0.6177730713
 0.6180878095
 0.6184023418
 0.6187166686
 0.6190307902
 0.6193447070
 0.6196584194
 0.6199719276
 0.6202852322
 0.6205983333
 0.6209112315
 0.6212239269
 0.6215364201
 0.6218487113
 0.6221608010
 0.6224726894
 0.6227843769
 0.6230958638
 0.6234071506
 0.6237182376
 0.6240291250
 0.6243398133
 0.6246503028
 0.6249605939
 0.6252706868
 0.6255805820
 0.6258902798
 0.6261997805
 0.6265090844
 0.6268181919
 0.6271271034
 0.6274358191
 0.6277443394
 0.6280526647
 0.6283607953
 0.6286687314
 0.6289764735
 0.6292840219
 0.6295913769
 0.6298985388
 0.6302055080
 0.6305122848
 0.6308188695
 0.6311252624
 0.6314314639
 0.6317374743
 0.6320432939
 0.6323489231
 0.6326543621
 0.6329596113
 0.6332646710
 0.6335695416
 0.6338742232
 0.6341787163
 0.6344830212
 0.6347871382
 0.6350910676
 0.6353948097
 0.6356983648
 0.6360017333
 0.6363049154
 0.6366079115
 0.6369107219
 0.6372133468
 0.6375157867
 0.6378180417
 0.6381201122
 0.6384219986
 0.6387237010
 0.6390252199
 0.6393265555
 0.6396277081
 0.6399286780
 0.6402294655
 0.6405300710
 0.6408304947
 0.6411307369
 0.6414307980
 0.6417306781
 0.6420303777
 0.6423298969
 0.6426292362
 0.6429283957
 0.6432273758
 0.6435261768
 0.6438247990
 0.6441232426
 0.6444215080
 0.6447195954
 0.6450175051
 0.6453152375
 0.6456127927
 0.6459101711
 0.6462073730
 0.6465043986
 0.6468012483
 0.6470979223
 0.6473944209
 0.6476907443
 0.6479868930
 0.6482828670
 0.6485786668
 0.6488742926
 0.6491697446
 0.6494650233
 0.6497601287
 0.6500550612
 0.6503498211
 0.6506444087
 0.6509388242
 0.6512330679
 0.6515271401
 0.6518210410
 0.6521147709
 0.6524083301
 0.6527017188
 0.6529949374
 0.6532879860
 0.6535808650
 0.6538735747
 0.6541661152
 0.6544584868
 0.6547506899
 0.6550427246
 0.6553345913
 0.6556262902
 0.6559178216
 0.6562091856
 0.6565003827
 0.6567914130
 0.6570822768
 0.6573729744
 0.6576635060
 0.6579538719
 0.6582440723
 0.6585341075
 0.6588239777
 0.6591136833
 0.6594032244
 0.6596926013
 0.6599818142
 0.6602708635
 0.6605597493
 0.6608484720
 0.6611370317
 0.6614254287
 0.6617136633
 0.6620017356
 0.6622896461
 0.6625773948
 0.6628649821
 0.6631524082
 0.6634396733
 0.6637267777
 0.6640137216
 0.6643005053
 0.6645871290
 0.6648735930
 0.6651598975
 0.6654460427
 0.6657320288
 0.6660178562
 0.6663035251
 0.6665890356
 0.6668743881
 0.6671595828
 0.6674446198
 0.6677294995
 0.6680142221
 0.6682987878
 0.6685831968
 0.6688674495
 0.6691515459
 0.6694354864
 0.6697192712
 0.6700029004
 0.6702863744
 0.6705696934
 0.6708528576
 0.6711358673
 0.6714187225
 0.6717014237
 0.6719839710
 0.6722663647
 0.6725486049
 0.6728306919
 0.6731126259
 0.6733944072
 0.6736760359
 0.6739575124
 0.6742388367
 0.6745200092
 0.6748010301
 0.6750818995
 0.6753626178
 0.6756431851
 0.6759236016
 0.6762038676
 0.6764839833
 0.6767639489
 0.6770437646
 0.6773234307
 0.6776029473
 0.6778823147
 0.6781615331
 0.6784406027
 0.6787195237
 0.6789982963
 0.6792769208
 0.6795553974
 0.6798337262
 0.6801119075
 0.6803899415
 0.6806678285
 0.6809455685
 0.6812231619
 0.6815006089
 0.6817779096
 0.6820550642
 0.6823320730
 0.6826089362
 0.6828856540
 0.6831622266
 0.6834386542
 0.6837149370
 0.6839910752
 0.6842670690
 0.6845429186
 0.6848186243
 0.6850941862
 0.6853696045
 0.6856448795
 0.6859200113
 0.6861950002
 0.6864698463
 0.6867445498
 0.6870191110
 0.6872935300
 0.6875678071
 0.6878419424
 0.6881159361
 0.6883897885
 0.6886634997
 0.6889370700
 0.6892104995
 0.6894837884
 0.6897569369
 0.6900299453
 0.6903028137
 0.6905755422
 0.6908481312
 0.6911205808
 0.6913928912
 0.6916650625
 0.6919370951
 0.6922089890
 0.6924807444
 0.6927523616
 0.6930238408
 0.6932951821
 0.6935663857
 0.6938374518
 0.6941083806
 0.6943791723
 0.6946498271
 0.6949203451
 0.6951907266
 0.6954609718
 0.6957310807
 0.6960010537
 0.6962708909
 0.6965405924
 0.6968101585
 0.6970795894
 0.6973488852
 0.6976180461
 0.6978870724
 0.6981559641
 0.6984247214
 0.6986933447
 0.6989618339
 0.6992301894
 0.6994984113
 0.6997664997
 0.7000344549
 0.7003022770
 0.7005699663
 0.7008375228
 0.7011049468
 0.7013722384
 0.7016393979
 0.7019064254
 0.7021733210
 0.7024400850
 0.7027067176
 0.7029732188
 0.7032395890
 0.7035058281
 0.7037719366
 0.7040379144
 0.7043037618
 0.7045694790
 0.7048350661
 0.7051005232
 0.7053658507
 0.7056310486
 0.7058961171
 0.7061610564
 0.7064258667
 0.7066905481
 0.7069551008
 0.7072195249
 0.7074838207
 0.7077479883
 0.7080120279
 0.7082759396
 0.7085397237
 0.7088033802
 0.7090669093
 0.7093303113
 0.7095935863
 0.7098567343
 0.7101197557
 0.7103826506
 0.7106454191
 0.7109080615
 0.7111705778
 0.7114329682
 0.7116952329
 0.7119573721
 0.7122193859
 0.7124812745
 0.7127430381
 0.7130046768
 0.7132661907
 0.7135275801
 0.7137888450
 0.7140499857
 0.7143110024
 0.7145718951
 0.7148326640
 0.7150933094
 0.7153538313
 0.7156142299
 0.7158745054
 0.7161346579
 0.7163946876
 0.7166545946
 0.7169143791
 0.7171740413
 0.7174335813
 0.7176929993
 0.7179522954
 0.7182114698
 0.7184705226
 0.7187294540
 0.7189882641
 0.7192469532
 0.7195055213
 0.7197639686
 0.7200222952
 0.7202805014
 0.7205385872
 0.7207965528
 0.7210543985
 0.7213121242
 0.7215697302
 0.7218272166
 0.7220845836
 0.7223418313
 0.7225989599
 0.7228559695
 0.7231128602
 0.7233696323
 0.7236262859
 0.7238828211
 0.7241392380
 0.7243955368
 0.7246517178
 0.7249077809
 0.7251637263
 0.7254195543
 0.7256752649
 0.7259308583
 0.7261863347
 0.7264416941
 0.7266969367
 0.7269520628
 0.7272070723
 0.7274619655
 0.7277167426
 0.7279714035
 0.7282259486
 0.7284803779
 0.7287346915
 0.7289888897
 0.7292429726
 0.7294969403
 0.7297507929
 0.7300045306
 0.7302581535
 0.7305116618
 0.7307650556
 0.7310183351
 0.7312715003
 0.7315245515
 0.7317774888
 0.7320303122
 0.7322830221
 0.7325356184
 0.7327881013
 0.7330404710
 0.7332927276
 0.7335448712
 0.7337969020
 0.7340488201
 0.7343006257
 0.7345523188
 0.7348038997
 0.7350553684
 0.7353067251
 0.7355579700
 0.7358091031
 0.7360601246
 0.7363110347
 0.7365618334
 0.7368125209
 0.7370630973
 0.7373135628
 0.7375639176
 0.7378141616
 0.7380642951
 0.7383143182
 0.7385642311
 0.7388140338
 0.7390637265
 0.7393133093
 0.7395627824
 0.7398121459
 0.7400613999
 0.7403105446
 0.7405595800
 0.7408085063
 0.7410573237
 0.7413060322
 0.7415546321
 0.7418031234
 0.7420515062
 0.7422997807
 0.7425479470
 0.7427960053
 0.7430439556
 0.7432917981
 0.7435395329
 0.7437871602
 0.7440346801
 0.7442820927
 0.7445293980
 0.7447765964
 0.7450236878
 0.7452706724
 0.7455175504
 0.7457643218
 0.7460109868
 0.7462575455
 0.7465039980
 0.7467503445
