ocio_configuration/LUTs/sRGB_CCTF_to_Linear_variant.spi1d
Version 1
From -0.1250000000 3.0000000000
Length 1024
Components 1
{
 -0.0096749226
 -0.0094384875
 -0.0092020525
 -0.0089656174
 -0.0087291824
 -0.0084927473
 -0.0082563122
 -0.0080198772
 -0.0077834421
 -0.0075470071
 -0.0073105720
 -0.0070741370
 -0.0068377019
 -0.0066012668
 -0.0063648318
 -0.0061283967
 -0.0058919617
 -0.0056555266
 -0.0054190915
 -0.0051826565
 -0.0049462214
 -0.0047097864
 -0.0044733513
 -0.0042369163
 -0.0040004812
 -0.0037640461
 -0.0035276111
 -0.0032911760
 -0.0030547410
 -0.0028183059
 -0.0025818708
 -0.0023454358
 -0.0021090007
 -0.0018725657
 -0.0016361306
 -0.0013996955
 -0.0011632605
 -0.0009268254
 -0.0006903904
 -0.0004539553
 -0.0002175203
 0.0000189148
 0.0002553499
 0.0004917849
 0.0007282200
 0.0009646550
 0.0012010901
 0.0014375252
 0.0016739602
 0.0019103953
 0.0021468303
 0.0023832654
 0.0026197005
 0.0028561355
 0.0030925706
 0.0033361920
 0.0035912121
 0.0038572557
 0.0041344547
 0.0044229390
 0.0047228362
 0.0050342718
 0.0053573692
 0.0056922499
 0.0060390337
 0.0063978385
 0.0067687804
 0.0071519740
 0.0075475323
 0.0079555668
 0.0083761873
 0.0088095025
 0.0092556194
 0.0097146441
 0.0101866809
 0.0106718332
 0.0111702032
 0.0116818917
 0.0122069985
 0.0127456224
 0.0132978610
 0.0138638108
 0.0144435675
 0.0150372256
 0.0156448788
 0.0162666198
 0.0169025403
 0.0175527314
 0.0182172831
 0.0188962845
 0.0195898242
 0.0202979896
 0.0210208677
 0.0217585445
 0.0225111052
 0.0232786346
 0.0240612164
 0.0248589339
 0.0256718695
 0.0265001051
 0.0273437219
 0.0282028004
 0.0290774205
 0.0299676617
 0.0308736025
 0.0317953210
 0.0327328950
 0.0336864012
 0.0346559163
 0.0356415159
 0.0366432756
 0.0376612701
 0.0386955737
 0.0397462603
 0.0408134032
 0.0418970752
 0.0429973486
 0.0441142954
 0.0452479869
 0.0463984941
 0.0475658875
 0.0487502373
 0.0499516130
 0.0511700840
 0.0524057189
 0.0536585862
 0.0549287538
 0.0562162895
 0.0575212603
 0.0588437331
 0.0601837742
 0.0615414499
 0.0629168257
 0.0643099670
 0.0657209387
 0.0671498055
 0.0685966316
 0.0700614809
 0.0715444171
 0.0730455033
 0.0745648026
 0.0761023774
 0.0776582901
 0.0792326026
 0.0808253766
 0.0824366735
 0.0840665542
 0.0857150795
 0.0873823098
 0.0890683053
 0.0907731260
 0.0924968312
 0.0942394804
 0.0960011326
 0.0977818464
 0.0995816805
 0.1014006930
 0.1032389418
 0.1050964847
 0.1069733791
 0.1088696821
 0.1107854506
 0.1127207415
 0.1146756110
 0.1166501153
 0.1186443105
 0.1206582522
 0.1226919958
 0.1247455968
 0.1268191099
 0.1289125901
 0.1310260919
 0.1331596696
 0.1353133774
 0.1374872691
 0.1396813984
 0.1418958189
 0.1441305837
 0.1463857460
 0.1486613586
 0.1509574740
 0.1532741449
 0.1556114233
 0.1579693614
 0.1603480111
 0.1627474238
 0.1651676512
 0.1676087445
 0.1700707547
 0.1725537329
 0.1750577296
 0.1775827954
 0.1801289807
 0.1826963357
 0.1852849102
 0.1878947543
 0.1905259174
 0.1931784490
 0.1958523985
 0.1985478150
 0.2012647475
 0.2040032447
 0.2067633552
 0.2095451276
 0.2123486101
 0.2151738509
 0.2180208979
 0.2208897990
 0.2237806019
 0.2266933540
 0.2296281028
 0.2325848953
 0.2355637788
 0.2385648001
 0.2415880059
 0.2446334429
 0.2477011574
 0.2507911960
 0.2539036046
 0.2570384295
 0.2601957163
 0.2633755109
 0.2665778590
 0.2698028059
 0.2730503971
 0.2763206777
 0.2796136927
 0.2829294872
 0.2862681059
 0.2896295935
 0.2930139945
 0.2964213533
 0.2998517143
 0.3033051216
 0.3067816191
 0.3102812509
 0.3138040606
 0.3173500919
 0.3209193884
 0.3245119935
 0.3281279505
 0.3317673024
 0.3354300925
 0.3391163635
 0.3428261583
 0.3465595197
 0.3503164902
 0.3540971122
 0.3579014281
 0.3617294801
 0.3655813105
 0.3694569611
 0.3733564739
 0.3772798907
 0.3812272531
 0.3851986028
 0.3891939812
 0.3932134297
 0.3972569895
 0.4013247018
 0.4054166076
 0.4095327478
 0.4136731633
 0.4178378949
 0.4220269831
 0.4262404684
 0.4304783914
 0.4347407924
 0.4390277115
 0.4433391889
 0.4476752646
 0.4520359786
 0.4564213707
 0.4608314807
 0.4652663482
 0.4697260127
 0.4742105137
 0.4787198905
 0.4832541825
 0.4878134289
 0.4923976686
 0.4970069407
 0.5016412841
 0.5063007376
 0.5109853399
 0.5156951297
 0.5204301455
 0.5251904258
 0.5299760089
 0.5347869331
 0.5396232366
 0.5444849575
 0.5493721339
 0.5542848037
 0.5592230047
 0.5641867747
 0.5691761514
 0.5741911724
 0.5792318752
 0.5842982973
 0.5893904760
 0.5945084486
 0.5996522523
 0.6048219241
 0.6100175012
 0.6152390206
 0.6204865189
 0.6257600332
 0.6310596001
 0.6363852561
 0.6417370380
 0.6471149822
 0.6525191252
 0.6579495031
 0.6634061524
 0.6688891092
 0.6743984096
 0.6799340896
 0.6854961853
 0.6910847325
 0.6966997670
 0.7023413246
 0.7080094409
 0.7137041516
 0.7194254923
 0.7251734982
 0.7309482049
 0.7367496477
 0.7425778618
 0.7484328824
 0.7543147445
 0.7602234834
 0.7661591338
 0.7721217308
 0.7781113092
 0.7841279037
 0.7901715491
 0.7962422799
 0.8023401308
 0.8084651362
 0.8146173307
 0.8207967485
 0.8270034241
 0.8332373915
 0.8394986851
 0.8457873389
 0.8521033869
 0.8584468633
 0.8648178018
 0.8712162364
 0.8776422009
 0.8840957290
 0.8905768543
 0.8970856105
 0.9036220312
 0.9101861499
 0.9167779999
 0.9233976146
 0.9300450275
 0.9367202716
 0.9434233803
 0.9501543865
 0.9569133235
 0.9637002243
 0.9705151217
 0.9773580487
 0.9842290382
 0.9911281229
 0.9980553355
 1.0050107087
 1.0119942752
 1.0190060675
 1.0260461180
 1.0331144593
 1.0402111237
 1.0473361435
 1.0544895511
 1.0616713787
 1.0688816584
 1.0761204223
 1.0833877025
 1.0906835310
 1.0980079398
 1.1053609608
 1.1127426258
 1.1201529665
 1.1275920148
 1.1350598023
 1.1425563607
 1.1500817216
 1.1576359164
 1.1652189766
 1.1728309338
 1.1804718192
 1.1881416641
 1.1958405000
 1.2035683579
 1.2113252691
 1.2191112647
 1.2269263757
 1.2347706332
 1.2426440682
 1.2505467116
 1.2584785942
 1.2664397469
 1.2744302005
 1.2824499857
 1.2904991331
 1.2985776735
 1.3066856374
 1.3148230553
 1.3229899578
 1.3311863752
 1.3394123380
 1.3476678766
 1.3559530212
 1.3642678020
 1.3726122494
 1.3809863935
 1.3893902643
 1.3978238920
 1.4062873066
 1.4147805380
 1.4233036163
 1.4318565713
 1.4404394328
 1.4490522307
 1.4576949947
 1.4663677545
 1.4750705398
 1.4838033802
 1.4925663054
 1.5013593448
 1.5101825279
 1.5190358843
 1.5279194432
 1.5368332341
 1.5457772863
 1.5547516291
 1.5637562917
 1.5727913034
 1.5818566932
 1.5909524902
 1.6000787237
 1.6092354225
 1.6184226157
 1.6276403322
 1.6368886009
 1.6461674507
 1.6554769104
 1.6648170089
 1.6741877747
 1.6835892367
 1.6930214235
 1.7024843638
 1.7119780860
 1.7215026188
 1.7310579906
 1.7406442300
 1.7502613653
 1.7599094249
 1.7695884372
 1.7792984305
 1.7890394330
 1.7988114730
 1.8086145787
 1.8184487782
 1.8283140996
 1.8382105710
 1.8481382205
 1.8580970761
 1.8680871656
 1.8781085171
 1.8881611585
 1.8982451175
 1.9083604220
 1.9185070998
 1.9286851785
 1.9388946861
 1.9491356499
 1.9594080979
 1.9697120574
 1.9800475561
 1.9904146214
 2.0008132810
 2.0112435621
 2.0217054923
 2.0321990990
 2.0427244094
 2.0532814508
 2.0638702506
 2.0744908360
 2.0851432342
 2.0958274723
 2.1065435775
 2.1172915769
 2.1280714976
 2.1388833665
 2.1497272107
 2.1606030571
 2.1715109327
 2.1824508644
 2.1934228789
 2.2044270032
 2.2154632641
 2.2265316882
 2.2376323024
 2.2487651333
 2.2599302075
 2.2711275518
 2.2823571926
 2.2936191566
 2.3049134702
 2.3162401601
 2.3275992526
 2.3389907741
 2.3504147511
 2.3618712099
 2.3733601770
 2.3848816784
 2.3964357406
 2.4080223898
 2.4196416522
 2.4312935539
 2.4429781212
 2.4546953800
 2.4664453566
 2.4782280768
 2.4900435669
 2.5018918527
 2.5137729602
 2.5256869154
 2.5376337440
 2.5496134721
 2.5616261254
 2.5736717298
 2.5857503109
 2.5978618946
 2.6100065066
 2.6221841725
 2.6343949180
 2.6466387687
 2.6589157503
 2.6712258883
 2.6835692082
 2.6959457355
 2.7083554957
 2.7207985142
 2.7332748166
 2.7457844281
 2.7583273741
 2.7709036799
 2.7835133709
 2.7961564724
 2.8088330094
 2.8215430074
 2.8342864915
 2.8470634868
 2.8598740184
 2.8727181115
 2.8855957912
 2.8985070824
 2.9114520103
 2.9244305997
 2.9374428758
 2.9504888633
 2.9635685872
 2.9766820723
 2.9898293437
 3.0030104259
 3.0162253440
 3.0294741226
 3.0427567864
 3.0560733602
 3.0694238687
 3.0828083366
 3.0962267884
 3.1096792488
 3.1231657424
 3.1366862937
 3.1502409272
 3.1638296676
 3.1774525391
 3.1911095663
 3.2048007736
 3.2185261855
 3.2322858262
 3.2460797201
 3.2599078915
 3.2737703648
 3.2876671642
 3.3015983140
 3.3155638383
 3.3295637613
 3.3435981073
 3.3576669003
 3.3717701645
 3.3859079240
 3.4000802027
 3.4142870249
 3.4285284144
 3.4428043953
 3.4571149915
 3.4714602270
 3.4858401257
 3.5002547114
 3.5147040081
 3.5291880396
 3.5437068297
 3.5582604021
 3.5728487808
 3.5874719893
 3.6021300514
 3.6168229909
 3.6315508313
 3.6463135964
 3.6611113097
 3.6759439948
 3.6908116754
 3.7057143750
 3.7206521170
 3.7356249251
 3.7506328226
 3.7656758331
 3.7807539800
 3.7958672866
 3.8110157764
 3.8261994728
 3.8414183990
 3.8566725784
 3.8719620343
 3.8872867899
 3.9026468685
 3.9180422934
 3.9334730876
 3.9489392745
 3.9644408771
 3.9799779187
 3.9955504222
 4.0111584108
 4.0268019075
 4.0424809355
 4.0581955176
 4.0739456770
 4.0897314366
 4.1055528193
 4.1214098481
 4.1373025459
 4.1532309355
 4.1691950399
 4.1851948819
 4.2012304842
 4.2173018698
 4.2334090614
 4.2495520816
 4.2657309534
 4.2819456993
 4.2981963421
 4.3144829045
 4.3308054090
 4.3471638784
 4.3635583352
 4.3799888020
 4.3964553014
 4.4129578559
 4.4294964880
 4.4460712203
 4.4626820752
 4.4793290751
 4.4960122426
 4.5127316000
 4.5294871697
 4.5462789741
 4.5631070355
 4.5799713764
 4.5968720189
 4.6138089854
 4.6307822982
 4.6477919795
 4.6648380515
 4.6819205365
 4.6990394567
 4.7161948341
 4.7333866910
 4.7506150495
 4.7678799316
 4.7851813596
 4.8025193554
 4.8198939412
 4.8373051389
 4.8547529705
 4.8722374580
 4.8897586235
 4.9073164888
 4.9249110759
 4.9425424067
 4.9602105031
 4.9779153869
 4.9956570801
 5.0134356044
 5.0312509816
 5.0491032336
 5.0669923822
 5.0849184490
 5.1028814558
 5.1208814244
 5.1389183764
 5.1569923335
 5.1751033174
 5.1932513497
 5.2114364521
 5.2296586461
 5.2479179533
 5.2662143953
 5.2845479936
 5.3029187698
 5.3213267453
 5.3397719418
 5.3582543805
 5.3767740831
 5.3953310709
 5.4139253653
 5.4325569877
 5.4512259596
 5.4699323022
 5.4886760370
 5.5074571852
 5.5262757682
 5.5451318072
 5.5640253235
 5.5829563384
 5.6019248731
 5.6209309488
 5.6399745867
 5.6590558080
 5.6781746339
 5.6973310854
 5.7165251838
 5.7357569501
 5.7550264054
 5.7743335709
 5.7936784675
 5.8130611163
 5.8324815383
 5.8519397545
 5.8714357859
 5.8909696535
 5.9105413782
 5.9301509810
 5.9497984827
 5.9694839043
 5.9892072666
 6.0089685906
 6.0287678970
 6.0486052068
 6.0684805406
 6.0883939193
 6.1083453637
 6.1283348945
 6.1483625326
 6.1684282985
 6.1885322131
 6.2086742970
 6.2288545708
 6.2490730554
 6.2693297712
 6.2896247389
 6.3099579792
 6.3303295127
 6.3507393598
 6.3711875412
 6.3916740774
 6.4121989889
 6.4327622963
 6.4533640201
 6.4740041806
 6.4946827985
 6.5153998940
 6.5361554878
 6.5569496001
 6.5777822514
 6.5986534620
 6.6195632523
 6.6405116427
 6.6614986535
 6.6825243050
 6.7035886176
 6.7246916114
 6.7458333068
 6.7670137240
 6.7882328832
 6.8094908047
 6.8307875087
 6.8521230154
 6.8734973449
 6.8949105174
 6.9163625531
 6.9378534720
 6.9593832943
 6.9809520400
 7.0025597293
 7.0242063823
 7.0458920189
 7.0676166592
 7.0893803232
 7.1111830309
 7.1330248023
 7.1549056575
 7.1768256162
 7.1987846985
 7.2207829243
 7.2428203136
 7.2648968861
 7.2870126618
 7.3091676606
 7.3313619022
 7.3535954067
 7.3758681936
 7.3981802829
 7.4205316944
 7.4429224478
 7.4653525629
 7.4878220594
 7.5103309571
 7.5328792757
 7.5554670348
 7.5780942542
 7.6007609536
 7.6234671525
 7.6462128707
 7.6689981277
 7.6918229432
 7.7146873368
 7.7375913281
 7.7605349366
 7.7835181818
 7.8065410834
 7.8296036608
 7.8527059336
 7.8758479213
 7.8990296433
 7.9222511191
 7.9455123682
 7.9688134099
 7.9921542638
 8.0155349492
 8.0389554856
 8.0624158923
 8.0859161887
 8.1094563941
 8.1330365279
 8.1566566095
 8.1803166580
 8.2040166929
 8.2277567334
 8.2515367987
 8.2753569082
 8.2992170811
 8.3231173366
 8.3470576939
 8.3710381722
 8.3950587908
 8.4191195687
 8.4432205252
 8.4673616793
 8.4915430503
 8.5157646573
 8.5400265193
 8.5643286554
 8.5886710848
 8.6130538265
 8.6374768995
 8.6619403228
 8.6864441156
 8.7109882968
 8.7355728854
 8.7601979004
 8.7848633608
 8.8095692854
 8.8343156934
 8.8591026036
 8.8839300348
 8.9087980061
 8.9337065363
 8.9586556443
 8.9836453490
 9.0086756691
 9.0337466237
 9.0588582313
 9.0840105110
 9.1092034815
 9.1344371615
 9.1597115698
 9.1850267253
 9.2103826466
 9.2357793525
 9.2612168618
 9.2866951930
 9.3122143649
 9.3377743963
 9.3633753057
 9.3890171118
 9.4146998334
 9.4404234889
 9.4661880970
 9.4919936763
 9.5178402455
 9.5437278231
 9.5696564277
 9.5956260777
 9.6216367919
 9.6476885887
 9.6737814865
 9.6999155040
 9.7260906597
 9.7523069719
 9.7785644592
 9.8048631400
 9.8312030328
 9.8575841560
 9.8840065280
 9.9104701673
 9.9369750921
 9.9635213210
 9.9901088723
 10.0167377642
 10.0434080153
 10.0701196438
 10.0968726680
 10.1236671062
 10.1505029768
 10.1773802980
 10.2042990881
 10.2312593653
 10.2582611479
 10.2853044542
 10.3123893024
 10.3395157106
 10.3666836971
 10.3938932801
 10.4211444777
 10.4484373081
 10.4757717895
 10.5031479400
 10.5305657777
 10.5580253208
 10.5855265873
 10.6130695953
 10.6406543630
 10.6682809084
 10.6959492496
 10.7236594045
 10.7514113913
 10.7792052279
 10.8070409325
 10.8349185229
 10.8628380171
 10.8907994332
 10.9188027891
 10.9468481028
 10.9749353922
 11.0030646752
 11.0312359697
 11.0594492938
 11.0877046651
 11.1160021018
 11.1443416215
 11.1727232422
 11.2011469818
 11.2296128580
 11.2581208887
 11.2866710917
 11.3152634849
 11.3438980859
 11.3725749127
 11.4012939829
 11.4300553144
 11.4588589248
 11.4877048320
 11.5165930536
 11.5455236074
 11.5744965110
 11.6035117822
 11.6325694387
 11.6616694980
 11.6908119780
 11.7199968962
 11.7492242702
 11.7784941177
 11.8078064564
 11.8371613037
 11.8665586774
 11.8959985950
 11.9254810740
 11.9550061321
 11.9845737867
 12.0141840555
 12.0438369559
 12.0735325055
 12.1032707218
 12.1330516223
 12.1628752244
 12.1927415457
 12.2226506035
 12.2526024154
 12.2825969989
 12.3126343712
 12.3427145500
 12.3728375525
 12.4030033961
 12.4332120984
 12.4634636765
 12.4937581480
 12.5240955302
 12.5544758403
 12.5848990959
 12.6153653141
 12.6458745123
 12.6764267078
 12.7070219180
 12.7376601600
 12.7683414512
 12.7990658088
 12.8298332501
}
# sRGB CCTF to Display Linear
